X:805
T:Prince Charlie's Medley
R:Jig
N:"Danced at Holyrood, 1745"
B:The Athole Collection
M:6/8
L:1/8
K:E Minor
E>EE E>EE|D>ED D>CD|E>EE E>EE|G>EG A2G|E>EE E>EE|
D>ED D>CD|E>EE E>EE|G>EG A2G||
A>AA A>Ad|c>AA B>AG|A>AA A>Ad|c>AA A2G|A>AA A>Ad|
c>AA B>AG|E2E E>DC|D>EG A2G||

